resources/haticons/SVG/looks_two.svg

<!-- Generated by IcoMoon.io -->
<svg version="1.1" xmlns="http://www.w3.org/2000/svg" width="24" height="24" viewBox="0 0 24 24">
<title>looks_two</title>
<path d="M15 11.016v-2.016q0-0.844-0.586-1.43t-1.43-0.586h-3.984v2.016h3.984v2.016h-1.969q-0.844 0-1.43 0.563t-0.586 1.406v4.031h6v-2.016h-3.984v-2.016h1.969q0.844 0 1.43-0.563t0.586-1.406zM18.984 3q0.797 0 1.406 0.609t0.609 1.406v13.969q0 0.797-0.609 1.406t-1.406 0.609h-13.969q-0.797 0-1.406-0.609t-0.609-1.406v-13.969q0-0.797 0.609-1.406t1.406-0.609h13.969z"></path>
</svg>

<svg xmlns="http://www.w3.org/2000/svg" width="24" height="24"><path d="M15 11.016V9q0-.844-.586-1.43t-1.43-.586H9V9h3.984v2.016h-1.969q-.844 0-1.43.563t-.586 1.406v4.031h6V15h-3.984v-2.016h1.969q.844 0 1.43-.563T15 11.015zM18.984 3q.797 0 1.406.609t.609 1.406v13.969q0 .797-.609 1.406t-1.406.609H5.015q-.797 0-1.406-.609T3 18.984V5.015q0-.797.609-1.406T5.015 3h13.969z"/></svg>
